X:234
T:The Old 
R:jig
C:Bruce Osborne - Apr. 2002
Z:abc by bosborne@kos.net
M:6/8
L:1/8
K:Cmaj
G,|C2 C EGE|FGA G2 c|BAB DEF|AGG G,A,B,|\
C2 C EGE|FGA G2 c|BAB DEF|EDB, C2:|
|:G|cBc ege|fga g2 e|cBc ege|edc Bdd|\
cBc ege|fga g2 e|cBc ege|dcB c2:|
